static/img/icons/linkarrowwhite.svg

<svg fill="none" viewBox=".98 .25 11.69 10.18" xmlns="http://www.w3.org/2000/svg"><path d="m7.58018 10.4367 5.09092-5.09091-5.09092-5.090907-.875.874997 3.60232 3.59091h-9.329595v1.25h9.329595l-3.60232 3.60227z" fill="#fff"/></svg>

<svg width="13" height="11" viewBox="0 0 13 11" fill="none" xmlns="http://www.w3.org/2000/svg">
<path d="M7.58018 10.4367L12.6711 5.34579L7.58018 0.254883L6.70518 1.12988L10.3075 4.72079H0.977905V5.97079H10.3075L6.70518 9.57306L7.58018 10.4367Z" fill="white"/>
</svg>
